icons/mail.svg

<svg width="16" height="15" xmlns="http://www.w3.org/2000/svg" version="1.1"><path fill="#000000" d="M1,2h14v12h-14v-12M2,3v2h1v1h1v1h1v1h1v1h4v-1h1v-1h1v-1h1v-1h1v-2h-12M2,6v5h1v-1h1v-1h1v-1h-1v-1h-1v-1h-1M14,6h-1v1h-1v1h-1v1h1v1h1v1h1v-5M5,10h-1v1h-1v1h-1v1h12v-1h-1v-1h-1v-1h-1v-1h-1v1h-4v-1h-1z"/></svg>

<svg width="16" height="15" xmlns="http://www.w3.org/2000/svg"><path d="M1 2h14v12H1V2m1 1v2h1v1h1v1h1v1h1v1h4V8h1V7h1V6h1V5h1V3H2m0 3v5h1v-1h1V9h1V8H4V7H3V6H2m12 0h-1v1h-1v1h-1v1h1v1h1v1h1V6m-9 4H4v1H3v1H2v1h12v-1h-1v-1h-1v-1h-1V9h-1v1H6V9H5z"/></svg>
